src/assets/icons/weeks,simple,05.svg

<svg width="48" height="48" viewBox="0 0 48 48" fill="none" xmlns="http://www.w3.org/2000/svg">
<rect opacity="0.2" x="5" y="5" width="38" height="38" rx="4" fill="black"/>
<path d="M5 13C5 9.22876 5 7.34315 6.17157 6.17157C7.34315 5 9.22876 5 13 5H35C38.7712 5 40.6569 5 41.8284 6.17157C43 7.34315 43 9.22876 43 13V15H5V13Z" fill="black"/>
<path d="M24.0554 38.2386C27.9418 38.2386 30.5838 35.7074 30.5753 32.179C30.5838 28.8381 28.2486 26.4347 25.1037 26.4347C23.5696 26.4347 22.2486 27.0739 21.6349 27.9347H21.5327L21.9844 23.5625H29.6122V20.5455H18.9418L18.1151 29.75L21.3963 30.3381C21.9332 29.6136 22.973 29.1619 24.0043 29.1619C25.7599 29.1705 27.0213 30.4403 27.0213 32.2727C27.0213 34.0881 25.7855 35.3409 24.0554 35.3409C22.5895 35.3409 21.4048 34.4205 21.3196 33.0653H17.7401C17.8082 36.0824 20.4418 38.2386 24.0554 38.2386Z" fill="black"/>
</svg>

<svg xmlns="http://www.w3.org/2000/svg" width="48" height="48" fill="none" viewBox="0 0 48 48">
  <rect width="38" height="38" x="5" y="5" fill="#000" opacity=".2" rx="4"/>
  <path fill="#000" d="M5 13c0-3.771 0-5.657 1.172-6.828C7.343 5 9.229 5 13 5h22c3.771 0 5.657 0 6.828 1.172C43 7.343 43 9.229 43 13v2H5v-2zM24.055 38.239c3.887 0 6.529-2.532 6.52-6.06.009-3.34-2.326-5.744-5.471-5.744-1.534 0-2.855.639-3.47 1.5h-.101l.451-4.372h7.628v-3.017h-10.67l-.827 9.204 3.281.588c.537-.724 1.577-1.176 2.608-1.176 1.756.009 3.017 1.278 3.017 3.11 0 1.816-1.236 3.069-2.966 3.069-1.465 0-2.65-.92-2.735-2.276h-3.58c.068 3.017 2.702 5.174 6.315 5.174z"/>
</svg>
